picto/cash-machine.svg

<svg class="color-immutable" width="24" height="24" viewBox="0 0 24 24" fill="none" xmlns="http://www.w3.org/2000/svg"><path d="M-0.000976562 22.499V1.49899C-0.000976562 0.673993 0.674023 -0.00100708 1.49902 -0.00100708H22.499C23.324 -0.00100708 23.999 0.673993 23.999 1.49899V22.499C23.999 23.324 23.324 23.999 22.499 23.999H1.49902C0.674023 23.999 -0.000976562 23.324 -0.000976562 22.499Z" fill="#2D327D"/><path d="M20.625 3.37399V4.87399H16.875V5.24899H21V2.99899H3V5.24899H7.124V4.87399H3.375V3.37399H20.625Z" fill="white"/><path d="M13.034 7.686C12.815 7.686 12.302 7.686 12.302 8.063C12.302 8.434 12.815 8.434 13.034 8.434C13.271 8.434 13.784 8.434 13.784 8.063C13.784 7.686 13.271 7.686 13.034 7.686Z" fill="white"/><path d="M13.034 9.646C12.815 9.646 12.302 9.646 12.302 10.023C12.302 10.394 12.815 10.394 13.034 10.394C13.271 10.394 13.784 10.394 13.784 10.023C13.784 9.646 13.271 9.646 13.034 9.646Z" fill="white"/><path d="M10.214 13.535H8.25V13.91H10.214V13.545V13.535Z" fill="white"/><path d="M15.75 13.91V4.12399H15.375V13.535H12.297V13.91H15.75Z" fill="white"/><path d="M10.214 14.285H9V14.66H10.214V14.285Z" fill="white"/><path d="M16.5 4.12399H16.125V14.285H12.297V14.66H16.5V4.12399Z" fill="white"/><path d="M11.068 12.302C11.149 12.271 11.234 12.255 11.322 12.253C11.341 12.252 11.359 12.252 11.377 12.252C11.88 12.252 12.289 12.658 12.296 13.16H15V4.12399H7.5V13.16H10.268C10.383 12.771 10.675 12.447 11.068 12.302ZM14.093 11.676H12.731V12.249H12.41C12.416 11.927 12.314 11.631 11.993 11.582V11.214H14.093V11.676ZM13.034 7.22399C13.871 7.22399 14.135 7.60799 14.135 8.06299C14.135 8.51199 13.871 8.89599 13.034 8.89599C12.215 8.89599 11.951 8.51199 11.951 8.06299C11.952 7.60799 12.216 7.22399 13.034 7.22399ZM13.034 9.18399C13.871 9.18399 14.135 9.56799 14.135 10.023C14.135 10.472 13.871 10.856 13.034 10.856C12.215 10.856 11.951 10.472 11.951 10.023C11.952 9.56799 12.216 9.18399 13.034 9.18399Z" fill="white"/><path d="M3.173 18.383L5.79 20.999H12V13.173C12 12.827 11.72 12.549 11.378 12.549C11.363 12.549 11.349 12.549 11.333 12.55C11.278 12.551 11.223 12.561 11.173 12.581C10.776 12.727 10.513 13.104 10.513 13.526V13.544V15.716C10.513 15.983 10.296 16.201 10.03 16.201H8.767C8.57 16.201 8.381 16.122 8.242 15.982L4.189 11.93C3.921 11.659 3.484 11.659 3.215 11.929C2.946 12.198 2.946 12.635 3.215 12.904L7.525 17.214L7.289 17.45L3.437 13.598L3.173 13.86C3.062 13.972 3 14.123 3 14.281C3 14.439 3.063 14.591 3.173 14.702L6.62 18.148L6.383 18.384L3.438 15.439L3.173 15.7C3.062 15.813 3 15.964 3 16.121C3 16.28 3.063 16.431 3.173 16.542L5.698 19.066L5.462 19.303L3.437 17.28L3.173 17.542C3.062 17.654 3 17.805 3 17.962C3 18.121 3.062 18.272 3.173 18.383Z" fill="white"/></svg>

<svg class="color-immutable" width="24" height="24" viewBox="0 0 24 24" fill="none" xmlns="http://www.w3.org/2000/svg"><g clip-path="url(#a)"><path d="M-.001 22.499v-21c0-.825.675-1.5 1.5-1.5h21c.825 0 1.5.675 1.5 1.5v21c0 .825-.675 1.5-1.5 1.5h-21c-.825 0-1.5-.675-1.5-1.5Z" fill="#2D327D"/><path d="M20.625 3.374v1.5h-3.75v.375H21v-2.25H3v2.25h4.124v-.375H3.375v-1.5h17.25ZM13.034 7.686c-.219 0-.732 0-.732.377 0 .371.513.371.732.371.237 0 .75 0 .75-.371 0-.377-.513-.377-.75-.377ZM13.034 9.646c-.219 0-.732 0-.732.377 0 .371.513.371.732.371.237 0 .75 0 .75-.371 0-.377-.513-.377-.75-.377ZM10.214 13.535H8.25v.375h1.964v-.375Z" fill="#fff"/><path d="M15.75 13.91V4.124h-.375v9.411h-3.078v.375h3.453ZM10.214 14.285H9v.375h1.214v-.375Z" fill="#fff"/><path d="M16.5 4.124h-.375v10.161h-3.828v.375H16.5V4.124Z" fill="#fff"/><path d="M11.068 12.302a.754.754 0 0 1 .254-.049l.055-.001a.92.92 0 0 1 .919.908H15V4.124H7.5v9.036h2.768a1.31 1.31 0 0 1 .8-.858Zm3.025-.626h-1.362v.573h-.321c.006-.322-.096-.618-.417-.667v-.368h2.1v.462Zm-1.059-4.452c.837 0 1.101.384 1.101.839 0 .449-.264.833-1.101.833-.819 0-1.083-.384-1.083-.833.001-.455.265-.839 1.083-.839Zm0 1.96c.837 0 1.101.384 1.101.839 0 .449-.264.833-1.101.833-.819 0-1.083-.384-1.083-.833.001-.455.265-.839 1.083-.839Z" fill="#fff"/><path d="m3.173 18.383 2.617 2.616H12v-7.826a.623.623 0 0 0-.622-.624l-.045.001a.455.455 0 0 0-.16.031c-.397.146-.66.523-.66.945v2.19a.485.485 0 0 1-.483.485H8.767a.74.74 0 0 1-.525-.219L4.189 11.93a.69.69 0 0 0-.974.974l4.31 4.31-.236.236-3.852-3.852-.264.262a.597.597 0 0 0 0 .842l3.447 3.446-.237.236-2.945-2.945-.265.261a.6.6 0 0 0 0 .842l2.525 2.524-.236.237-2.025-2.023-.264.262a.597.597 0 0 0 0 .841Z" fill="#fff"/></g><defs><clipPath id="a"><path fill="#fff" d="M0 0h24v24H0z"/></clipPath></defs></svg>
